X: 1
T: Lament For The Kerry Fisherman
M: 3/4
L: 1/8
R: waltz
K: Ddor
B,3D E2|E3F G2|A D4E|F3E D2|E E- E4|
B,3D E2|E3F G2|A D4E|F3E D2|E E- E4|B,3D E2|
E3F G2|A3G F2-|F4EF|GA D3E|F3E D2|E E- E4||
z4AB|c3d e2|G3F G2|A3D E2|E4AB|c3d e2|
G3F G2|A4AB|c3d e2|G3F G2|A3D E2|E4A2|
D3C D2|z2E F2G|F({G}F) ED EF|({G}F)E ED E2-|E6|]
